src/icons/IconTrash/IconTrash_size_xs.svg

<svg width="12" height="12" viewBox="0 0 12 12" fill="none" xmlns="http://www.w3.org/2000/svg">
  <path
    fill-rule="evenodd"
    clip-rule="evenodd"
    d="M4 2C4 1.44771 4.44772 1 5 1H7C7.55228 1 8 1.44771 8 2H11V3H10V10C10 10.5523 9.55228 11 9 11H3C2.44772 11 2 10.5523 2 10V3H1V2H4ZM5 4H4V9H5V4ZM8 4H7V9H8V4Z"
    fill="black"
  />
</svg>

<svg viewBox="0 0 12 12" xmlns="http://www.w3.org/2000/svg">
  <path
    fill-rule="evenodd"
    clip-rule="evenodd"
    d="M4 2a1 1 0 011-1h2a1 1 0 011 1h3v1h-1v7a1 1 0 01-1 1H3a1 1 0 01-1-1V3H1V2h3zm1 2H4v5h1V4zm3 0H7v5h1V4z"
  />
</svg>
